public/assets/images/maison-logo.svg

<?xml version="1.0" encoding="UTF-8"?>
<svg width="137px" height="31px" viewBox="0 0 137 31" version="1.1" xmlns="http://www.w3.org/2000/svg" xmlns:xlink="http://www.w3.org/1999/xlink">
    <!-- Generator: Sketch 58 (84663) - https://sketch.com -->
    <title>Group</title>
    <desc>Created with Sketch.</desc>
    <g id="Symblos" stroke="none" stroke-width="1" fill="none" fill-rule="evenodd">
        <g id="Group">
            <path d="M2.5,16.0137448 L2.5,27.5 L26.6176471,27.5 L26.6176471,16.0137448 L14.5588235,3.58950235 L2.5,16.0137448 Z" id="Rectangle" stroke="#4191FF" stroke-width="5"></path>
            <path d="M63.1782353,29.6470588 L58.3482353,29.6470588 L57.9882353,21.5170588 C57.8382353,18.6070588 57.7782353,15.6070588 57.9282353,13.0270588 L54.7182353,27.4570588 L50.0682353,27.4570588 L46.6482353,13.0270588 C46.8582353,16.0870588 46.8582353,18.6670588 46.7382353,21.5770588 L46.3782353,29.6470588 L41.5782353,29.6470588 L43.1382353,8.85705882 L49.3482353,8.85705882 L52.4682353,22.9570588 L55.3782353,8.85705882 L61.6182353,8.85705882 L63.1782353,29.6470588 Z M78.8982353,25.0270588 C78.8982353,26.2570588 79.2282353,26.7070588 79.9782353,26.9770588 L78.9882353,30.0670588 C77.0982353,29.9170588 75.8682353,29.3470588 75.1482353,27.7570588 C74.0082353,29.5270588 72.2382353,30.1570588 70.3482353,30.1570588 C67.1682353,30.1570588 65.1582353,28.0870588 65.1582353,25.1770588 C65.1582353,21.6970588 67.7982353,19.8070588 72.6282353,19.8070588 L74.2482353,19.8070588 L74.2482353,19.1170588 C74.2482353,17.2270588 73.4982353,16.6570588 71.5482353,16.6570588 C70.5282353,16.6570588 68.9682353,16.9570588 67.3782353,17.4970588 L66.2982353,14.3770588 C68.3082353,13.6270588 70.4982353,13.2070588 72.2982353,13.2070588 C76.9182353,13.2070588 78.8982353,15.1570588 78.8982353,18.8470588 L78.8982353,25.0270588 Z M71.7282353,26.7670588 C72.8382353,26.7670588 73.6782353,26.1970588 74.2482353,25.2370588 L74.2482353,22.4170588 L73.0782353,22.4170588 C70.9182353,22.4170588 69.8682353,23.1670588 69.8682353,24.7570588 C69.8682353,26.0170588 70.5582353,26.7670588 71.7282353,26.7670588 Z M85.0182353,5.31705882 C86.6682353,5.31705882 87.8382353,6.48705882 87.8382353,8.01705882 C87.8382353,9.54705882 86.6682353,10.7170588 85.0182353,10.7170588 C83.3682353,10.7170588 82.2282353,9.54705882 82.2282353,8.01705882 C82.2282353,6.48705882 83.3682353,5.31705882 85.0182353,5.31705882 Z M87.4182353,29.6470588 L82.6782353,29.6470588 L82.6782353,13.7170588 L87.4182353,13.7170588 L87.4182353,29.6470588 Z M96.7482353,13.2070588 C99.0582353,13.2070588 101.128235,13.9570588 102.598235,15.1570588 L100.858235,17.8570588 C99.6282353,17.0470588 98.3082353,16.5970588 97.0782353,16.5970588 C95.6382353,16.5970588 95.0082353,17.0770588 95.0082353,17.7970588 C95.0082353,18.6370588 95.4282353,18.9970588 98.2782353,19.8370588 C101.428235,20.7370588 103.198235,22.0570588 103.198235,24.9070588 C103.198235,28.2070588 100.078235,30.1570588 96.1182353,30.1570588 C93.3582353,30.1570588 91.0182353,29.1970588 89.4582353,27.7870588 L91.7982353,25.1770588 C92.9682353,26.1370588 94.4382353,26.7670588 95.9682353,26.7670588 C97.4382353,26.7670588 98.3082353,26.2270588 98.3082353,25.2970588 C98.3082353,24.1870588 97.8282353,23.8570588 94.9482353,23.0470588 C91.7982353,22.1470588 90.2382353,20.5270588 90.2382353,18.0670588 C90.2382353,15.3370588 92.7282353,13.2070588 96.7482353,13.2070588 Z M112.528235,13.2070588 C117.388235,13.2070588 120.328235,16.3270588 120.328235,21.6970588 C120.328235,26.7970588 117.388235,30.1570588 112.528235,30.1570588 C107.698235,30.1570588 104.728235,27.0370588 104.728235,21.6670588 C104.728235,16.5670588 107.668235,13.2070588 112.528235,13.2070588 Z M112.528235,16.6870588 C110.608235,16.6870588 109.648235,18.2170588 109.648235,21.6670588 C109.648235,25.2070588 110.608235,26.6770588 112.528235,26.6770588 C114.448235,26.6770588 115.408235,25.1470588 115.408235,21.6970588 C115.408235,18.1570588 114.448235,16.6870588 112.528235,16.6870588 Z M132.478235,13.2070588 C135.238235,13.2070588 136.888235,14.9770588 136.888235,18.0070588 L136.888235,29.6470588 L132.148235,29.6470588 L132.148235,18.8170588 C132.148235,17.1370588 131.578235,16.6870588 130.648235,16.6870588 C129.598235,16.6870588 128.728235,17.4370588 127.888235,18.7570588 L127.888235,29.6470588 L123.148235,29.6470588 L123.148235,13.7170588 L127.288235,13.7170588 L127.618235,15.6070588 C128.968235,14.0170588 130.498235,13.2070588 132.478235,13.2070588 Z" id="Maison" fill="#3D3D3D" fill-rule="nonzero"></path>
        </g>
    </g>
</svg>

<svg width="137" height="31" xmlns="http://www.w3.org/2000/svg"><g fill="none" fill-rule="evenodd"><path d="M2.5 16.014V27.5h24.118V16.014L14.558 3.59 2.5 16.014z" stroke="#4191FF" stroke-width="5"/><path d="M63.178 29.647h-4.83l-.36-8.13c-.15-2.91-.21-5.91-.06-8.49l-3.21 14.43h-4.65l-3.42-14.43c.21 3.06.21 5.64.09 8.55l-.36 8.07h-4.8l1.56-20.79h6.21l3.12 14.1 2.91-14.1h6.24l1.56 20.79zm15.72-4.62c0 1.23.33 1.68 1.08 1.95l-.99 3.09c-1.89-.15-3.12-.72-3.84-2.31-1.14 1.77-2.91 2.4-4.8 2.4-3.18 0-5.19-2.07-5.19-4.98 0-3.48 2.64-5.37 7.47-5.37h1.62v-.69c0-1.89-.75-2.46-2.7-2.46-1.02 0-2.58.3-4.17.84l-1.08-3.12c2.01-.75 4.2-1.17 6-1.17 4.62 0 6.6 1.95 6.6 5.64v6.18zm-7.17 1.74c1.11 0 1.95-.57 2.52-1.53v-2.82h-1.17c-2.16 0-3.21.75-3.21 2.34 0 1.26.69 2.01 1.86 2.01zm13.29-21.45c1.65 0 2.82 1.17 2.82 2.7 0 1.53-1.17 2.7-2.82 2.7s-2.79-1.17-2.79-2.7c0-1.53 1.14-2.7 2.79-2.7zm2.4 24.33h-4.74v-15.93h4.74v15.93zm9.33-16.44c2.31 0 4.38.75 5.85 1.95l-1.74 2.7c-1.23-.81-2.55-1.26-3.78-1.26-1.44 0-2.07.48-2.07 1.2 0 .84.42 1.2 3.27 2.04 3.15.9 4.92 2.22 4.92 5.07 0 3.3-3.12 5.25-7.08 5.25-2.76 0-5.1-.96-6.66-2.37l2.34-2.61c1.17.96 2.64 1.59 4.17 1.59 1.47 0 2.34-.54 2.34-1.47 0-1.11-.48-1.44-3.36-2.25-3.15-.9-4.71-2.52-4.71-4.98 0-2.73 2.49-4.86 6.51-4.86zm15.78 0c4.86 0 7.8 3.12 7.8 8.49 0 5.1-2.94 8.46-7.8 8.46-4.83 0-7.8-3.12-7.8-8.49 0-5.1 2.94-8.46 7.8-8.46zm0 3.48c-1.92 0-2.88 1.53-2.88 4.98 0 3.54.96 5.01 2.88 5.01s2.88-1.53 2.88-4.98c0-3.54-.96-5.01-2.88-5.01zm19.95-3.48c2.76 0 4.41 1.77 4.41 4.8v11.64h-4.74v-10.83c0-1.68-.57-2.13-1.5-2.13-1.05 0-1.92.75-2.76 2.07v10.89h-4.74v-15.93h4.14l.33 1.89c1.35-1.59 2.88-2.4 4.86-2.4z" fill="#3D3D3D" fill-rule="nonzero"/></g></svg>
